X: 1
T: Ballydesmond Polka
Z: Tommy McCarty
S: The Chieftains
D: Water from the Well
M: 2/4
L: 1/8
R: Polka
K: Dmix
A2AG|Ad dB|c>B cG|EF G/A/B|A2AG|Ad dB|c>B cG|EDD2:|
ed ^cd|e^cd2|ed ^cd|ea ag|ed ^cd|e^cd2|AB cd|e^cd2|
ed ^cd|e^cd2|ed ^cd|ef~g2|af ge|fd e^c|AB ^cd|e^cd2|
